X:77
T:The Rose of Allendale
Z:Jack Campin, http://www.campin.me.uk/
F:Jack Campin's Nine-Note Tunebook
% last edit 03-02-2013
M:C
L:1/8
Q:1/4=100
K:G
GA|B3A G3 F|AGFE  D3  D|D2G2 G2AB|A6
GA|B3A G3 F|AGFE  D3  D|EG2E FGAB|G6
G2|A3F D2D2|B3 G  D2 D2|c2A2 B2G2|A6
GA|B3A G3 F|AGFE  D3  D|EG2E FGAB|G6  ||
dd|d3B B2G2|FE3   z2 zE|c3 B A2G2|FD3 z2
zD|E3F AGFE|D2G2 HB2 GF|EG2E FGAB|G6  |]

